X:1
T:4th Dragoon’s March. HS.01
M:C
L:1/8
Q:1/2=75
S:Henry Stables MS,Cumbria,late19thC
R:.March
O:Walthwaite,nr.Ambleside.
A:England
N:1=topC marked as natural, which it already is.CGP..
Z:vmp.Chris Partington
K:G
“^Primo Maestoso..P”
G2G>GG2Bc|d>BG2G2cd|e<c g2d<Bg2|gfag fedc|!
.B.d.B.G .A.c.A.F|.G.B.c.d .e.f.g.a|bgfg fed^c|d2d>dd4:|!
|:”^f”a2a>a a”^1″c’ba|g2g>g gbag|fedg fedc|B2A>A AcBA|!
G2G>G GBcd|e<ca2f<db2|Bdce AcFA|G2G>GG4:|!
|:”^p”B4A4|G2G>G FGAB|(dc).c.c (cB).B.B|(BA).A.A ABc^c|!
d2d>d c2c>c|B2B>B ABcd|(ec)(cA) (AG)(GF)|A4G4:|!
|:”^ff”f2a>g fdef|g2b>ag3G|GBcd efga|g3g fedc|!
B4A4|d3dc2c2|B2(d/c/)B G2F2|A4G4:|

